src/assets/img/icons/facebook-icon.svg

<svg height="244" viewBox="0 0 245 244" width="245" xmlns="http://www.w3.org/2000/svg"><path d="m245 122.745584c0-67.7905643-54.845068-122.745584-122.5-122.745584-67.6549316 0-122.5 54.9550197-122.5 122.745584 0 61.265868 44.7964795 112.0461 103.359375 121.254416v-85.773271h-31.1035156v-35.481145h31.1035156v-27.0423868c0-30.7631119 18.288389-47.7557036 46.270068-47.7557036 13.402505 0 27.421338 2.3973746 27.421338 2.3973746v30.206921h-15.446963c-15.217514 0-19.963193 9.4617186-19.963193 19.1686887v23.0251061h33.974609l-5.431152 35.481145h-28.543457v85.773271c58.562896-9.208316 103.359375-59.988548 103.359375-121.254416" fill="#fffffe" fill-rule="evenodd"/></svg>

<?xml version="1.0" encoding="UTF-8"?>
<svg width="245px" height="244px" viewBox="0 0 245 244" version="1.1" xmlns="http://www.w3.org/2000/svg"
>
    <!-- Generator: Sketch 59 (86127) - https://sketch.com -->
    <title>Fill 1</title>
    <desc>Created with Sketch.</desc>
    <g id="Page-1" stroke="none" stroke-width="1" fill="none" fill-rule="evenodd">
        <g id="Artboard" transform="translate(-199.000000, -117.000000)" fill="#FFFFFE">
            <g id="f_logo_RGB-White_1024" transform="translate(199.000000, 117.000000)">
                <path d="M245,122.745584 C245,54.9550197 190.154932,1.13686838e-13 122.5,1.13686838e-13 C54.8450684,1.13686838e-13 0,54.9550197 0,122.745584 C0,184.011452 44.7964795,234.791684 103.359375,244 L103.359375,158.226729 L72.2558594,158.226729 L72.2558594,122.745584 L103.359375,122.745584 L103.359375,95.7031972 C103.359375,64.9400853 121.647764,47.9474936 149.629443,47.9474936 C163.031948,47.9474936 177.050781,50.3448682 177.050781,50.3448682 L177.050781,80.5517892 L161.603818,80.5517892 C146.386304,80.5517892 141.640625,90.0135078 141.640625,99.7204779 L141.640625,122.745584 L175.615234,122.745584 L170.184082,158.226729 L141.640625,158.226729 L141.640625,244 C200.203521,234.791684 245,184.011452 245,122.745584"
                      id="Fill-1"></path>
            </g>
        </g>
    </g>
</svg>
